packages/match-logos/mono/svg/justpark.svg

<svg fill="none" height="30" viewBox="0 0 141 30" width="141" xmlns="http://www.w3.org/2000/svg" xmlns:xlink="http://www.w3.org/1999/xlink"><clipPath id="a"><path d="m0 0h141v30h-141z"/></clipPath><g clip-path="url(#a)"><path d="m106.892 10.599c-.069 0-.069 0-.069-.069h-.067c-.138-.069-.278-.069-.414-.069h-2.702c-.831 0-1.385.693-1.385 1.3163v.1387c0 .2078-.208.4155-.416.4155-.139 0-.208-.069-.278-.1387l-.067-.069c-1.317-1.593-3.5342-1.8705-4.3652-1.9395h-.2078c-5.6115 0-9.975 4.155-9.975 9.834 0 5.6805 4.9178 9.63 9.7673 9.63.4852 0 3.3257 0 4.7797-1.8023l.07-.0675c.069-.0705.208-.1402.277-.1402.207 0 .415.2077.415.4155v.138c0 .6937.555 1.317 1.385 1.317h2.701c.139 0 .277 0 .416-.0698h.138c.225-.1124.419-.2787.564-.4842s.237-.4437.267-.6933v-16.485c-.03-.2496-.122-.4877-.267-.6932-.145-.2054-.338-.3718-.563-.4843zm-9.491 14.1323c-2.6325 0-4.7797-2.1473-4.7797-4.7798s2.1472-4.7797 4.7797-4.7797c2.633 0 4.78 2.145 4.78 4.7775s-2.145 4.779-4.7777 4.779zm24.247-13.0238v2.5635c-.139.6923-.693 1.1775-1.385 1.1775h-.416c-2.01 0-4.85 1.731-4.85 5.1255v7.551c0 .762-.622 1.3853-1.385 1.3853h-2.701c-.367-.0018-.718-.1484-.977-.4079s-.405-.6108-.406-.9774v-16.35c.069-.555.347-.9697.831-1.1775l.139-.069c.138-.069.278-.069.415-.069h2.702c.831 0 1.386.6225 1.386 1.3163v.141c0 .2077.207.4155.415.4155.069 0 .208-.0675.277-.138l.07-.069c1.661-1.8015 3.809-1.8015 4.432-1.8015h.138c.693 0 1.316.6225 1.316 1.386zm-34.084-.9c-.2078 5.3325-3.4635 9.1425-9.4905 9.1425h-.1387c-.1388 0-.4156.1395-.4156.4163v1.455c0 .2077-.1425.3465-.3495.3465-.069 0-.1387 0-.2077-.069l-.0697-.069-3.6023-3.9488c-.207-.2077-.2775-.4155-.2775-.693s.0705-.555.2775-.762l3.6727-3.672c.0314-.0329.0691-.0592.1108-.0771.0418-.0179.0868-.0272.1322-.0272.0455 0 .0905.0093.1323.0272.0417.0179.0794.0442.1107.0771.069.069.0691.1388.0691.2078v1.3822s-.0691.1388.0689.2775c.0676.069.138.1388.2776.1388.9674 0 1.6612-.4155 2.4225-1.1775l.1395-.1388c.6915-.762 1.1774-1.8015 1.2449-2.91 0-2.6325-2.1465-4.779-4.7789-4.779-2.6325 0-4.7805 2.148-4.7805 4.7805v13.9245c0 2.565-1.9388 4.71-4.5023 4.92h-.3465c-.2077 0-.4155-.0675-.555-.2077 0-.069-.0675-.069-.0675-.069l-.1395-.1373c-.1403-.2077-.2775-.4155-.2775-.693v-17.6655c.0037-6.165 4.7827-10.8075 10.674-10.8075 6.027 0 10.668 4.8495 10.668 10.8075zm52.234 18.7035h-2.633c-1.593 0-2.979-.6225-4.018-1.9395l-3.672-4.7797-.068-.072c-.069-.069-.139-.069-.208-.069-.208 0-.347.1387-.347.3465v5.0572c-.001.3671-.147.7189-.406.9784-.26.2595-.612.4055-.979.4061h-3.188c-.366-.0012-.718-.1475-.977-.4071-.26-.2595-.406-.6112-.407-.9781v-25.4213c0-.762.623-1.38525 1.385-1.38525h3.188c.367.00079.719.14702.978.40665.26.25964.406.61152.406.9786v13.578c0 .2078.139.3465.347.3465.069 0 .139 0 .208-.069l3.117-4.0177c.968-1.2473 2.423-1.9395 4.015-1.9395h2.355c.622 0 .97.765.623 1.2502l-5.126 6.6503c-.139.2775-.345.624-.345.9705s.206.693.345.9l6.097 7.8975c.345.4845.001 1.3155-.693 1.3155zm-105.2305-8.9362c0 1.6627.0697 4.71-1.8697 6.6502-1.455 1.455-3.6023 2.4938-7.2751 2.4938h-.1372c-3.6712 0-5.82-.9698-7.275-2.4938-1.9387-1.9395-1.8697-4.8495-1.8697-6.72v-8.6587c0-.762.6262-1.3853 1.3874-1.3853h3.1178c.762 0 1.3852.6225 1.3852 1.3853v6.72c0 1.0379.1395 2.424.2085 3.4627.0698.1388.0698.2078.0698.3465v.1388c.3465 1.3822 1.455 2.4225 2.91 2.49h.2775c1.455-.138 2.6325-1.1078 2.9078-2.493v-.1395c.0674-.138.0675-.207.0675-.345.1395-1.0403.2085-2.4255.2085-3.465v-6.7185c0-.762.6225-1.3853 1.3852-1.3853h3.1178c.7619 0 1.3852.6225 1.3852 1.3853v8.1075c.0023.207.0023.4147.0023.6225zm16.6965 2.286c0 .3495 0 .6262-.069.9727-.1387 1.524-.831 2.8403-1.8015 3.9488-1.524 1.3852-3.9488 2.286-6.3038 2.217h-.5549c-2.2853-.1388-4.2248-.831-6.0263-1.6628-.2775-.1387-.6225-.4852-.762-.9-.069-.3472-.069-.7627.1388-1.11.2775-.4147.6225-1.1077.9-1.5922.2085-.4853.6937-.6225.9704-.6225.21 0 .4186.0675.5551.138 1.3874.6225 3.255 1.245 5.265 1.245.21-.0675.8324-.1373 1.2494-.414.3465-.2775.555-.762.555-1.1775s-.0697-.762-.3472-1.1085c-.1561-.2193-.3723-.3886-.6225-.4875-.069-.0675-.069-.0675-.1387-.0675-.2078-.0675-.4155-.0675-.693-.1388-1.0063-.1355-2.0014-.3435-2.9776-.6225-2.148-.624-4.0874-2.7022-4.0874-5.3347 0-4.2255 3.7402-6.37355 8.1045-6.3038 1.5922 0 3.255.3465 4.71.762.2775.069.6224.3465.8324.762.0675.2775.2063.6915-.0704 1.1775l-.0691.1373c-.2258.499-.48.9848-.7612 1.455-.1402.2077-.417.693-1.11.693-.2078 0-.4155-.0705-.6225-.1403-.8325-.2775-2.01-.6225-3.603-.555 0 0-.3465.0705-.762.21h-.1387c-.1381 0-.2071.069-.2775.1388-.5528.4852-.6915 1.3852-.2063 1.9395.0543.1241.1534.2232.2775.2775.5535.4162 1.455.555 2.0775.6225.1387 0 .2775.0705.4155.0705.969.2077 1.8697.4154 2.6325.762l.4147.2077c1.7325.969 2.7713 2.7015 2.9101 4.5023zm12.885-10.9425v1.9387c0 .4853-.1387.9-.6225 1.2473-.2775.2077-.624.2775-.9015.2775h-1.3853c-.146-.0019-.2909.0256-.4261.0806-.1353.055-.2582.1365-.3614.2397-.1033.1032-.1849.2261-.24.3613-.0552.1352-.0827.2801-.0809.4261v11.358c0 .7628-.3465 1.6635-1.6628 1.6635h-2.7015c-1.1085 0-1.6628-.555-1.6628-1.6627v-11.358c.0019-.1462-.0256-.2913-.0808-.4267-.0551-.1355-.1368-.2584-.2403-.3618-.1035-.1033-.2266-.1848-.362-.2398-.1355-.055-.2807-.0823-.4269-.0802-.345-.069-.7634-.2078-1.0402-.555-.2077-.2775-.2775-.6225-.2775-.9v-2.0775c0-.4163.2085-.8325.555-1.11.2775-.207.6225-.276.9-.276h.0697c.5535 0 1.0381-.48605 1.0381-1.11005v-3.396c0-.762.6225-1.38525 1.386-1.38525h3.1875c.367.00079.7188.14702.9783.40665.2595.25964.4056.61152.4062.9786v3.4635c0 .62255.4852 1.11005 1.1084 1.11005h1.455c.7621 0 1.3853.6225 1.3853 1.3845zm-50.0175-9.77105v19.74305c0 4.9185-3.4628 7.8975-7.55025 7.8975-1.8015 0-5.6115-.9698-6.51225-3.8798-.069-.138-.069-.3457-.069-.483v-.0697c0-.4155.3465-.762.831-.762.069 0 .20775.072.2775.072h.069c.48525.2077 1.24725.4852 2.14725.4852h.069c.069 0 4.77975-.0675 4.77975-5.0565v-13.9965c0-2.6325 2.01-4.71 4.572-4.9185h.345c.2085 0 .4163.069.6225.20775.2798.20775.3495.48525.4185.762z" fill="#1f304c"/></g></svg>

<svg width="141" height="30" viewBox="0 0 141 30" fill="none" xmlns="http://www.w3.org/2000/svg">
<g clip-path="url(#clip0)">
<path d="M106.892 10.599C106.823 10.599 106.823 10.599 106.823 10.53H106.756C106.618 10.461 106.478 10.461 106.342 10.461H103.64C102.809 10.461 102.255 11.154 102.255 11.7773V11.916C102.255 12.1238 102.047 12.3315 101.839 12.3315C101.7 12.3315 101.631 12.2625 101.561 12.1928L101.494 12.1238C100.177 10.5308 97.9598 10.2533 97.1288 10.1843H96.921C91.3095 10.1843 86.946 14.3393 86.946 20.0183C86.946 25.6988 91.8638 29.6483 96.7133 29.6483C97.1985 29.6483 100.039 29.6483 101.493 27.846L101.563 27.7785C101.632 27.708 101.771 27.6383 101.84 27.6383C102.047 27.6383 102.255 27.846 102.255 28.0538V28.1918C102.255 28.8855 102.81 29.5088 103.64 29.5088H106.341C106.48 29.5088 106.618 29.5088 106.757 29.439H106.895C107.12 29.3266 107.314 29.1603 107.459 28.9548C107.604 28.7493 107.696 28.5111 107.726 28.2615V11.7765C107.696 11.5269 107.604 11.2888 107.459 11.0833C107.314 10.8779 107.121 10.7115 106.896 10.599H106.892ZM97.401 24.7313C94.7685 24.7313 92.6213 22.584 92.6213 19.9515C92.6213 17.319 94.7685 15.1718 97.401 15.1718C100.034 15.1718 102.181 17.3168 102.181 19.9493C102.181 22.5818 100.036 24.7283 97.4033 24.7283L97.401 24.7313ZM121.648 11.7075V14.271C121.509 14.9633 120.955 15.4485 120.263 15.4485H119.847C117.837 15.4485 114.997 17.1795 114.997 20.574V28.125C114.997 28.887 114.375 29.5103 113.612 29.5103H110.911C110.544 29.5085 110.193 29.3619 109.934 29.1024C109.675 28.8429 109.529 28.4916 109.528 28.125V11.775C109.597 11.22 109.875 10.8053 110.359 10.5975L110.498 10.5285C110.636 10.4595 110.776 10.4595 110.913 10.4595H113.615C114.446 10.4595 115.001 11.082 115.001 11.7758V11.9168C115.001 12.1245 115.208 12.3323 115.416 12.3323C115.485 12.3323 115.624 12.2648 115.693 12.1943L115.763 12.1253C117.424 10.3238 119.572 10.3238 120.195 10.3238H120.333C121.026 10.3238 121.649 10.9463 121.649 11.7098L121.648 11.7075ZM87.564 10.8075C87.3562 16.14 84.1005 19.95 78.0735 19.95H77.9348C77.796 19.95 77.5192 20.0895 77.5192 20.3663V21.8213C77.5192 22.029 77.3767 22.1678 77.1697 22.1678C77.1007 22.1678 77.031 22.1678 76.962 22.0988L76.8923 22.0298L73.29 18.081C73.083 17.8733 73.0125 17.6655 73.0125 17.388C73.0125 17.1105 73.083 16.833 73.29 16.626L76.9627 12.954C76.9941 12.9211 77.0318 12.8948 77.0735 12.8769C77.1153 12.859 77.1603 12.8497 77.2057 12.8497C77.2512 12.8497 77.2962 12.859 77.338 12.8769C77.3797 12.8948 77.4174 12.9211 77.4487 12.954C77.5177 13.023 77.5178 13.0928 77.5178 13.1618V14.544C77.5178 14.544 77.4487 14.6828 77.5867 14.8215C77.6543 14.8905 77.7247 14.9603 77.8643 14.9603C78.8317 14.9603 79.5255 14.5448 80.2868 13.7828L80.4263 13.644C81.1178 12.882 81.6037 11.8425 81.6712 10.734C81.6712 8.1015 79.5247 5.955 76.8923 5.955C74.2598 5.955 72.1118 8.103 72.1118 10.7355V24.66C72.1118 27.225 70.173 29.37 67.6095 29.58H67.263C67.0553 29.58 66.8475 29.5125 66.708 29.3723C66.708 29.3033 66.6405 29.3033 66.6405 29.3033L66.501 29.166C66.3607 28.9583 66.2235 28.7505 66.2235 28.473V10.8075C66.2272 4.6425 71.0062 0 76.8975 0C82.9245 0 87.5655 4.8495 87.5655 10.8075H87.564ZM139.798 29.511H137.165C135.572 29.511 134.186 28.8885 133.147 27.5715L129.475 22.7918L129.407 22.7198C129.338 22.6508 129.268 22.6508 129.199 22.6508C128.991 22.6508 128.852 22.7895 128.852 22.9973V28.0545C128.851 28.4216 128.705 28.7734 128.446 29.0329C128.186 29.2924 127.834 29.4384 127.467 29.439H124.279C123.913 29.4378 123.561 29.2915 123.302 29.0319C123.042 28.7724 122.896 28.4207 122.895 28.0538V2.6325C122.895 1.8705 123.518 1.24725 124.28 1.24725H127.468C127.835 1.24804 128.187 1.39427 128.446 1.6539C128.706 1.91354 128.852 2.26542 128.852 2.6325V16.2105C128.852 16.4183 128.991 16.557 129.199 16.557C129.268 16.557 129.338 16.557 129.407 16.488L132.524 12.4703C133.492 11.223 134.947 10.5308 136.539 10.5308H138.894C139.516 10.5308 139.864 11.2958 139.517 11.781L134.391 18.4313C134.252 18.7088 134.046 19.0553 134.046 19.4018C134.046 19.7483 134.252 20.0948 134.391 20.3018L140.488 28.1993C140.833 28.6838 140.489 29.5148 139.795 29.5148L139.798 29.511ZM34.5675 20.5748C34.5675 22.2375 34.6372 25.2848 32.6978 27.225C31.2428 28.68 29.0955 29.7188 25.4227 29.7188H25.2855C21.6143 29.7188 19.4655 28.749 18.0105 27.225C16.0718 25.2855 16.1408 22.3755 16.1408 20.505V11.8463C16.1408 11.0843 16.767 10.461 17.5282 10.461H20.646C21.408 10.461 22.0312 11.0835 22.0312 11.8463V18.5663C22.0312 19.6042 22.1707 20.9903 22.2397 22.029C22.3095 22.1678 22.3095 22.2368 22.3095 22.3755V22.5143C22.656 23.8965 23.7645 24.9368 25.2195 25.0043H25.497C26.952 24.8663 28.1295 23.8965 28.4048 22.5113V22.3718C28.4722 22.2338 28.4723 22.1648 28.4723 22.0268C28.6118 20.9865 28.6808 19.6013 28.6808 18.5618V11.8433C28.6808 11.0813 29.3033 10.458 30.066 10.458H33.1838C33.9457 10.458 34.569 11.0805 34.569 11.8433V19.9508C34.5713 20.1578 34.5713 20.3655 34.5713 20.5733L34.5675 20.5748ZM51.264 22.8608C51.264 23.2103 51.264 23.487 51.195 23.8335C51.0563 25.3575 50.364 26.6738 49.3935 27.7823C47.8695 29.1675 45.4447 30.0683 43.0897 29.9993H42.5348C40.2495 29.8605 38.31 29.1683 36.5085 28.3365C36.231 28.1978 35.886 27.8513 35.7465 27.4365C35.6775 27.0893 35.6775 26.6738 35.8853 26.3265C36.1628 25.9118 36.5078 25.2188 36.7853 24.7343C36.9938 24.249 37.479 24.1118 37.7557 24.1118C37.9657 24.1118 38.1743 24.1793 38.3108 24.2498C39.6982 24.8723 41.5658 25.4948 43.5758 25.4948C43.7858 25.4273 44.4082 25.3575 44.8252 25.0808C45.1717 24.8033 45.3802 24.3188 45.3802 23.9033C45.3802 23.4878 45.3105 23.1413 45.033 22.7948C44.8769 22.5755 44.6607 22.4062 44.4105 22.3073C44.3415 22.2398 44.3415 22.2398 44.2718 22.2398C44.064 22.1723 43.8563 22.1723 43.5788 22.101C42.5725 21.9655 41.5774 21.7575 40.6012 21.4785C38.4532 20.8545 36.5138 18.7763 36.5138 16.1438C36.5138 11.9183 40.254 9.77025 44.6183 9.84C46.2105 9.84 47.8733 10.1865 49.3283 10.602C49.6058 10.671 49.9507 10.9485 50.1607 11.364C50.2282 11.6415 50.367 12.0555 50.0903 12.5415L50.0212 12.6788C49.7954 13.1778 49.5412 13.6636 49.26 14.1338C49.1198 14.3415 48.843 14.8268 48.15 14.8268C47.9422 14.8268 47.7345 14.7563 47.5275 14.6865C46.695 14.409 45.5175 14.064 43.9245 14.1315C43.9245 14.1315 43.578 14.202 43.1625 14.3415H43.0238C42.8857 14.3415 42.8167 14.4105 42.7463 14.4803C42.1935 14.9655 42.0548 15.8655 42.54 16.4198C42.5943 16.5439 42.6934 16.643 42.8175 16.6973C43.371 17.1135 44.2725 17.2523 44.895 17.3198C45.0337 17.3198 45.1725 17.3903 45.3105 17.3903C46.2795 17.598 47.1802 17.8057 47.943 18.1523L48.3577 18.36C50.0902 19.329 51.129 21.0615 51.2678 22.8623L51.264 22.8608ZM64.149 11.9183V13.857C64.149 14.3423 64.0103 14.757 63.5265 15.1043C63.249 15.312 62.9025 15.3818 62.625 15.3818H61.2397C61.0937 15.3799 60.9488 15.4074 60.8136 15.4624C60.6783 15.5174 60.5554 15.5989 60.4522 15.7021C60.3489 15.8053 60.2673 15.9282 60.2122 16.0634C60.157 16.1986 60.1295 16.3435 60.1313 16.4895V27.8475C60.1313 28.6103 59.7848 29.511 58.4685 29.511H55.767C54.6585 29.511 54.1042 28.956 54.1042 27.8483V16.4903C54.1061 16.3441 54.0786 16.199 54.0234 16.0636C53.9683 15.9281 53.8866 15.8052 53.7831 15.7018C53.6796 15.5985 53.5565 15.517 53.4211 15.462C53.2856 15.407 53.1404 15.3797 52.9942 15.3818C52.6492 15.3128 52.2308 15.174 51.954 14.8268C51.7463 14.5493 51.6765 14.2043 51.6765 13.9268V11.8493C51.6765 11.433 51.885 11.0168 52.2315 10.7393C52.509 10.5323 52.854 10.4633 53.1315 10.4633H53.2012C53.7547 10.4633 54.2393 9.97725 54.2393 9.35325V5.95725C54.2393 5.19525 54.8618 4.572 55.6253 4.572H58.8128C59.1798 4.57279 59.5316 4.71902 59.7911 4.97865C60.0506 5.23829 60.1967 5.59017 60.1973 5.95725V9.42075C60.1973 10.0433 60.6825 10.5308 61.3057 10.5308H62.7607C63.5228 10.5308 64.146 11.1533 64.146 11.9153L64.149 11.9183ZM14.1315 2.14725V21.8903C14.1315 26.8088 10.6687 29.7878 6.58125 29.7878C4.77975 29.7878 0.96975 28.818 0.069 25.908C0 25.77 0 25.5623 0 25.425V25.3553C0 24.9398 0.3465 24.5933 0.831 24.5933C0.9 24.5933 1.03875 24.6653 1.1085 24.6653H1.1775C1.66275 24.873 2.42475 25.1505 3.32475 25.1505H3.39375C3.46275 25.1505 8.1735 25.083 8.1735 20.094V6.0975C8.1735 3.465 10.1835 1.3875 12.7455 1.179H13.0905C13.299 1.179 13.5068 1.248 13.713 1.38675C13.9928 1.5945 14.0625 1.872 14.1315 2.14875V2.14725Z" fill="#1F304C"/>
</g>
<defs>
<clipPath id="clip0">
<rect width="141" height="30" fill="white"/>
</clipPath>
</defs>
</svg>
